svg/lectern.svg

<svg xmlns="http://www.w3.org/2000/svg" viewBox="0 0 24 24"><path d="M17 21v1H7v-1h2V11h6v10zm.5-15c0-1.61-1.09-2.95-2.57-3.36-.15-.37-.5-.64-.93-.64-.55 0-1 .45-1 1s.45 1 1 1c.31 0 .58-.15.76-.37 1.01.32 1.74 1.26 1.74 2.37H4l1 4h14l1-4z"/></svg>

<svg xmlns="http://www.w3.org/2000/svg" id="mdi-lectern" viewBox="0 0 24 24"><path d="M17 21V22H7V21H9V11H15V21H17M17.5 6C17.5 4.39 16.41 3.05 14.93 2.64C14.78 2.27 14.43 2 14 2C13.45 2 13 2.45 13 3C13 3.55 13.45 4 14 4C14.31 4 14.58 3.85 14.76 3.63C15.77 3.95 16.5 4.89 16.5 6H4L5 10H19L20 6H17.5Z" /></svg>
